svgs/duotone/floppy-disks.svg

<svg xmlns="http://www.w3.org/2000/svg" viewBox="0 0 512 512"><!--! Font Awesome Pro 6.6.0 by @fontawesome - https://fontawesome.com License - https://fontawesome.com/license (Commercial License) Copyright 2024 Fonticons, Inc. --><defs><style>.fa-secondary{opacity:.4}</style></defs><path class="fa-secondary" d="M0 120L0 376c0 75.1 60.9 136 136 136l256 0c13.3 0 24-10.7 24-24s-10.7-24-24-24l-256 0c-48.6 0-88-39.4-88-88l0-256c0-13.3-10.7-24-24-24S0 106.7 0 120zM240 288a64 64 0 1 0 128 0 64 64 0 1 0 -128 0z"/><path class="fa-primary" d="M152 0C121.1 0 96 25.1 96 56l0 304c0 30.9 25.1 56 56 56l304 0c30.9 0 56-25.1 56-56l0-218.7c0-14.9-5.9-29.1-16.4-39.6L410.3 16.4C399.8 5.9 385.6 0 370.7 0L152 0zm8 96c0-17.7 14.3-32 32-32l160 0c17.7 0 32 14.3 32 32l0 32c0 17.7-14.3 32-32 32l-160 0c-17.7 0-32-14.3-32-32l0-32zM304 224a64 64 0 1 1 0 128 64 64 0 1 1 0-128z"/></svg>

<svg xmlns="http://www.w3.org/2000/svg" viewBox="0 0 512 512"><!--! Font Awesome Pro 6.4.0 by @fontawesome - https://fontawesome.com License - https://fontawesome.com/license (Commercial License) Copyright 2023 Fonticons, Inc. --><defs><style>.fa-secondary{opacity:.4}</style></defs><path class="fa-primary" d="M152 0C121.1 0 96 25.1 96 56V360c0 30.9 25.1 56 56 56H456c30.9 0 56-25.1 56-56V141.3c0-14.9-5.9-29.1-16.4-39.6L410.3 16.4C399.8 5.9 385.6 0 370.7 0H152zm8 96c0-17.7 14.3-32 32-32H352c17.7 0 32 14.3 32 32v32c0 17.7-14.3 32-32 32H192c-17.7 0-32-14.3-32-32V96zM304 224a64 64 0 1 1 0 128 64 64 0 1 1 0-128z"/><path class="fa-secondary" d="M48 120c0-13.3-10.7-24-24-24S0 106.7 0 120V376c0 75.1 60.9 136 136 136H392c13.3 0 24-10.7 24-24s-10.7-24-24-24H136c-48.6 0-88-39.4-88-88V120zM304 352a64 64 0 1 0 0-128 64 64 0 1 0 0 128z"/></svg>
